public/assets/ब.svg

<svg width="16" height="16" viewBox="0 0 16 16" fill="none" xmlns="http://www.w3.org/2000/svg">
<path d="M0 0H16V2.8162H0V0ZM8.94652 4.23676V6.80374H7.07942L8.14263 8.07477C8.43652 8.42368 8.73906 8.7892 9.05024 9.17134C9.37871 9.53686 9.64668 9.84424 9.85413 10.0935C10.0789 10.3427 10.1912 10.4673 10.1912 10.4673C10.1912 10.4673 10.174 10.4091 10.1394 10.2928C10.1221 10.1765 10.0962 9.93562 10.0616 9.57009C10.0443 9.18795 10.0357 8.63136 10.0357 7.90031V1.24611H14.4441V16H10.0357V13.433L10.1912 13.0343L7.3128 9.66978C7.19179 9.52025 6.97569 9.26272 6.66451 8.8972C6.35332 8.51506 6.0335 8.12461 5.70502 7.72586V10.6417C5.70502 10.8744 5.75689 11.0322 5.86062 11.1153C5.96434 11.1983 6.11129 11.2399 6.30146 11.2399H9.88007C10.0702 11.2399 10.2172 11.1983 10.3209 11.1153C10.4246 11.0322 10.4765 10.8744 10.4765 10.6417L10.8395 12.3115C10.8395 12.8764 10.7358 13.3084 10.5284 13.6075C10.3209 13.9065 9.84549 14.0561 9.10211 14.0561H4.69368C3.58725 14.0561 2.74014 13.8235 2.15235 13.3583C1.58185 12.8764 1.2966 12.054 1.2966 10.891V6.90343C1.2966 5.98962 1.54727 5.31672 2.04862 4.88474C2.54997 4.45275 3.50945 4.23676 4.92707 4.23676H8.94652Z" fill="#EDEDED"/>
</svg>

<svg xmlns="http://www.w3.org/2000/svg" width="16" height="16" fill="none" viewBox="0 0 16 16"><path fill="#ededed" d="M0 0h16v2.816H0zm8.947 4.237v2.567H7.079l1.064 1.27q.44.525.907 1.097.493.548.804.923l.337.373-.052-.174a17 17 0 0 1-.077-.723 40 40 0 0 1-.026-1.67V1.246h4.408V16h-4.408v-2.567l.155-.399L7.313 9.67q-.181-.224-.648-.773a268 268 0 0 0-.96-1.171v2.916q0 .348.156.473.155.125.44.125h3.58q.284 0 .44-.125.155-.124.155-.473l.363 1.67q0 .846-.31 1.296-.312.447-1.427.448H4.694q-1.66 0-2.542-.698-.855-.723-.855-2.467V6.903q0-1.37.752-2.018.751-.648 2.878-.648z"/></svg>
